symbols/web/pan_tool_alt/materialsymbolsrounded/pan_tool_alt_wght100grad200fill1_20px.svg

<svg xmlns="http://www.w3.org/2000/svg" height="20" width="20"><path d="M8.667 17.062q-.167 0-.24-.083-.073-.083-.302-.291l-3.896-3.5q-.437-.438-.531-.907-.094-.469.219-.885.333-.438.791-.521.459-.083 1 .083l2.042.521V4.771q0-.813.51-1.323.511-.51 1.323-.51.813 0 1.323.51.511.51.511 1.323v3.771H12q.292 0 .646.083.354.083.708.25l1.458.625q.667.333.917.99.25.656.104 1.572l-.708 4.126q-.042.395-.417.635-.375.239-.833.239Z"/></svg>

<svg xmlns="http://www.w3.org/2000/svg" height="20" width="20"><path d="M8.667 17.062Q8.5 17.062 8.427 16.979Q8.354 16.896 8.125 16.688L4.229 13.188Q3.792 12.75 3.698 12.281Q3.604 11.812 3.917 11.396Q4.25 10.958 4.708 10.875Q5.167 10.792 5.708 10.958L7.75 11.479V4.771Q7.75 3.958 8.26 3.448Q8.771 2.938 9.583 2.938Q10.396 2.938 10.906 3.448Q11.417 3.958 11.417 4.771V8.542H12Q12.292 8.542 12.646 8.625Q13 8.708 13.354 8.875L14.812 9.5Q15.479 9.833 15.729 10.49Q15.979 11.146 15.833 12.062L15.125 16.188Q15.083 16.583 14.708 16.823Q14.333 17.062 13.875 17.062Z"/></svg>
